X: 5111
T: Bridge To Nowhere
R: jig
M: 6/8
K: Cdorian
K: Cmin
gcg g2f|gcg bgf|gfe e2c|f2c cef|
gcg g2f|fec e2f|B2c cef|g2c Bcc:|
|:gcg Pb3|gbf Pg3|gbf gfe|f2c cef|
gcg b2f|fec agg|B2c cef|g2c Bcc:|

